!! 00000] TT[WS
!!!OTL: Gege canjia balujiun
!!!ARE: Asia, China, Shanxi Heshun
!! Ethnic Group: Han
!! WI, 278 (2)
!!!SCT: J0332
!!!YEM: Copyright 1995, estate of Helmut Schaffrath.
**kern
*ICvox
*Ivox
*M2/4
*k[f#c#g#]
*A:
{4b
8ee
8ee
=1
8ff#
8ee
8cc#
8b
=2
8.b
16cc#
8ee
8a
=3
2b}
=4
{4b
8ee
8ee
=5
8ff#
8ee
8cc#
8b
=6
8b
8cc#
8ee
8a
=7
2b}
=8
{4a
8g#
8f#
=9
4e
4e
=10
4ee
8ff#
8ee
=11
8dd
8cc#
4b}
=12
{8.ee
16ff#
8ee
8ee
=13
8dd
8cc#
8.b
16cc#
=14
8.a
16g#
8f#
8c#
=15
2e}
==
!!!AGN: Xiaodiao. Xinminge, Xuanchuan
!! Neue Text. Politische Liede
!!!ONB: ESAC (Essen Associative Code) Database: CHINA
!!!AMT: simple duple
!!!AIN: vox
!!!EED: Helmut Schaffrath
!!!EEV: 1.0
*-
